X: 41239
T: Truce, The
R: slip jig
M: 9/8
K: Gmajor
(AB)G AGF G(A/B/c)|dgg fgd cdA|BcB AGF EGc|DBB DGB ABd|
B2 G AGF G(A/B/c)|dgg fgd efg|gfe deA B2d|c2B ABG ABd|
BEE DEG DGc|BGD DGB ABd|BEE DEG DEC|D2 B, DGB Adc|
BEE DEG DGc|BGD DGB ABd|Bee Beg dec|B2A G(g/f/e) deA||

